X:128
T:Losing my Religion
M:4/4
L:1/8
Q:1/8=270
K:C
dedA|:[f2A2F2C2][fAFC][fAFC] [fAFC][fADC][fAFC][fAFC]|
[f3A3F3C3][fAFC] edA|1[a2c2E2A,2][acEA,][acEA,] [acEA,][acEA,][acEA,][ac
EA,]| z[acEA,][acEA,][acEA,]dedA:|2
[a2c2E2A,2][acEA,][acEA,][a2c2E2B,2][acEA,][acEA,]|
[g3B3D3G,3][gBDG,][g2B2D2G,2][g2B2D2G,2]
|:[a2c2E2A,2][acEA,][acEA,][a2c2E2B,2][acEA,][acEA,]|
[a2c2E2A,2][acEA,][acEA,][a2c2E2B,2][acEA,][acEA,]|
1[B2E2G,2][BEG,][BEG,][BEG,][cEG,][BEG,][BEG,]|
[B2E2G,2][BEG,][BEG,][BEG,][cEG,][BEG,][BEG,]:|3
[B2E2G,2][BEG,][BEG,][BEG,][cEG,][BEG,][BEG,]|
[B2E2G,2][BEG,][BEG,][BEG,][cEG,][BEG,][BEG,]|
[a2d2F2A,2][adFA,][adFA,][adFA,][adFA,][adFA,][adFA,]| \
[a2d2F2A,2][adFA,][adFA,][adFA,][adFA,][adFA,][adFA,]|[g2B2D2G,2][gBDG,]
[gBDG,][gBDG,][gBDG,][gBDG,][gBDG,]|zEGABeBA|:
[f2A2F2C2][fAFC][fAFC][fAFC][fADC][fAFC][fAFC]| \
[f2A2F2C2][fAFC][fAFC][fAFC][fADC][fAFC][fAFC]|
[a2c2E2A,2][acEA,][acEA,][a2c2E2B,2][acEB,][acEB,]|
[a2c2E2C2][acEC][acEC]D2[acEC][acEC]:|2
[a2c2E2A,2][acEA,][acEA,][a2c2E2B,2][acEA,][acEA,]| \
[g2B2D2G,2]GA BeBA|zEGA BeBA|
[a2c2E2A,2][acEA,][acEA,][a2c2E2B,2][acEA,][acEA,]|[gBDG,]EGA Bded|eeed
zddd|:
cccAzAAA|3
eeed zddd:|cccA zAAA|z8|eeee zeee|
eeee zeee| \
eeee zeee|eeee zeee|eeee zeee|eeee zeee|eeee zeee|edcA dcAc|A8|
W:Created with TablEdit http://www.tabledit.com/
